X:1
T: The College Hornpipe
T: 8 x 32R3C (RSCDS Book 20)
R: reel
C: arr. T. Traub 6-26-03
P: Jolly Tars
M: 4/4
L: 1/8
%
K: F
|: cB|"F"AFAc "Bb"dBdf|"C"eceg "F"f2 fe|"Bb"dfed "F"cAfe|"Gm"dcBA "C"G2 cB|"F"AFAc "Bb"dBdf|
"C"eceg "Dm"f2 fe|"Bb"dbag "C"fede|"F"f2 f2 f2 :: gf|"C"eceg b2 ag|"F"fcfa c'2 ba|
"Gm"g^fga "Bb"bag=f|"C"e2 c2 c2 cB|"F"AFAc "Bb"dBdf|"C"eceg "Dm"f2 fe|"Bb"dbag "C"fede|"F"f2 f2 f2 :|
